storage/app/icons/phosphoricons/fill/equalizer-fill.svg

<svg xmlns="http://www.w3.org/2000/svg" fill="currentColor" viewBox="0 0 256 256"><path d="M80 96a8 8 0 0 1-8 8H24a8 8 0 0 1 0-16h48a8 8 0 0 1 8 8m72 24h-48a8 8 0 0 0 0 16h48a8 8 0 0 0 0-16m32-48h48a8 8 0 0 0 0-16h-48a8 8 0 0 0 0 16M72 120H24a8 8 0 0 0-8 8v64a8 8 0 0 0 8 8h48a8 8 0 0 0 8-8v-64a8 8 0 0 0-8-8m160-32h-48a8 8 0 0 0-8 8v96a8 8 0 0 0 8 8h48a8 8 0 0 0 8-8V96a8 8 0 0 0-8-8m-80 64h-48a8 8 0 0 0-8 8v32a8 8 0 0 0 8 8h48a8 8 0 0 0 8-8v-32a8 8 0 0 0-8-8"/></svg>

<svg xmlns="http://www.w3.org/2000/svg" viewBox="0 0 256 256" fill="currentColor"><path d="M80,96a8,8,0,0,1-8,8H24a8,8,0,0,1,0-16H72A8,8,0,0,1,80,96Zm72,24H104a8,8,0,0,0,0,16h48a8,8,0,0,0,0-16Zm32-48h48a8,8,0,0,0,0-16H184a8,8,0,0,0,0,16ZM72,120H24a8,8,0,0,0-8,8v64a8,8,0,0,0,8,8H72a8,8,0,0,0,8-8V128A8,8,0,0,0,72,120ZM232,88H184a8,8,0,0,0-8,8v96a8,8,0,0,0,8,8h48a8,8,0,0,0,8-8V96A8,8,0,0,0,232,88Zm-80,64H104a8,8,0,0,0-8,8v32a8,8,0,0,0,8,8h48a8,8,0,0,0,8-8V160A8,8,0,0,0,152,152Z"/></svg>
